X: 5
T:Day The Pub Burned Down, The
M:4/4
L:1/8
Q:120
K:G
d|&quot;G&quot;GB dd ed d>B|dd ed&quot;D&quot;f2zd|
dd ed af d>d|d>d ed &quot;G&quot;B2zB|!
GB dd e<d dd|gg ag &quot;C&quot;e3g|
g>g ag &quot;G&quot;bg d>B|&quot;D&quot;d>c BA &quot;G&quot;G3:||
